azure-patterns/svg-bar-graph.svg

<svg xmlns="http://www.w3.org/2000/svg" viewBox="0 0 49 48">
                                
                            
<rect opacity="0.6" x="0.488281" width="48" height="48" fill="white"></rect>
<path d="M46.25 5.875H38.8711V42.7695H46.25V5.875Z" fill="#50E6FF"></path>
<path d="M10.2295 36.5547H2.85059V42.7685H10.2295V36.5547Z" fill="#1A1A1A"></path>
<path d="M22.2686 31.6045H14.8896V42.6728H22.2686V31.6045Z" fill="#1A1A1A"></path>
<path d="M34.2109 19.3711H26.832V42.6729H34.2109V19.3711Z" fill="#0078D7"></path>
</svg>

<svg xmlns="http://www.w3.org/2000/svg" viewBox="0 0 49 48"><path opacity=".6" fill="#fff" d="M.488 0h48v48h-48z"/><path d="M46.25 5.875h-7.379V42.77h7.379V5.874z" fill="#50E6FF"/><path d="M10.23 36.555H2.85v6.214h7.38v-6.214zM22.269 31.605h-7.38v11.068h7.38V31.604z" fill="#1A1A1A"/><path d="M34.21 19.371h-7.378v23.302h7.379V19.37z" fill="#0078D7"/></svg>
